X: 41362
T: Turnpike, The
R: reel
M: 4/4
K: Gminor
|:BcdB cdBG|FDFG Bcdf|babf gbfd|ecdB cBGA
BcdB cdBG|FDFG Bcdf|babf gbfd|1 ecAc B2BA:|2 ecAc B2AG||
|:F2 AF cFAF|B2dB fBdB|c2=ec gc=ec|f2 af c'faf|
babf gbfd|efga b2ab|c'abg afgf|1 ecAc B2AG:|2 ecAc B2BA||

